world_stage/static/flags/rect/twn.svg

<svg height="800" viewBox="0 0 1200 800" width="1200" xmlns="http://www.w3.org/2000/svg" xmlns:xlink="http://www.w3.org/1999/xlink"><clipPath id="a"><path d="m0 600h900v-600h-900z" transform="translate(-225.00001 -513.75001)"/></clipPath><clipPath id="b"><path d="m0 600h900v-600h-900z" transform="translate(-225.00001 -506.25001)"/></clipPath><path d="m0 0h900v600h-900z" fill="#fe0000" transform="matrix(1.3333333 0 0 -1.3333333 0 800)"/><path d="m0 300h450v300.001h-450z" fill="#000095" transform="matrix(1.3333333 0 0 -1.3333333 0 800)"/><g fill="#fff"><path d="m0 0 112.5 30-112.5 30-112.5-30m142.5 0-30-112.5-30 112.5 30 112.5" transform="matrix(1.3333333 0 0 -1.3333333 300 240)"/><path d="m0 0 112.428-30.269-82.428 82.231-112.428 30.269m123.409-71.25-82.231-82.428 30.269 112.428 82.231 82.428" transform="matrix(1.3333333 0 0 -1.3333333 280 234.64133)"/><path d="m0 0 82.231-82.428-30.269 112.428-82.231 82.428m71.25-123.409-112.428-30.269 82.428 82.231 112.428 30.269" transform="matrix(1.3333333 0 0 -1.3333333 265.35867 220)"/></g><path clip-path="url(#a)" d="m0 0c35.208 0 63.75-28.542 63.75-63.75s-28.542-63.75-63.75-63.75-63.75 28.542-63.75 63.75 28.542 63.75 63.75 63.75" fill="#000095" transform="matrix(1.3333333 0 0 -1.3333333 300 115)"/><path clip-path="url(#b)" d="m0 0c31.066 0 56.25-25.184 56.25-56.25s-25.184-56.25-56.25-56.25-56.25 25.184-56.25 56.25 25.184 56.25 56.25 56.25" fill="#fff" transform="matrix(1.3333333 0 0 -1.3333333 300 125)"/></svg>

<?xml version="1.0" encoding="UTF-8" standalone="no"?>
<!-- Created with Inkscape (http://www.inkscape.org/) -->

<svg
   version="1.1"
   id="svg1"
   width="1200"
   height="800"
   viewBox="0 0 1200 800"
   sodipodi:docname="tw.ai"
   xmlns:inkscape="http://www.inkscape.org/namespaces/inkscape"
   xmlns:sodipodi="http://sodipodi.sourceforge.net/DTD/sodipodi-0.dtd"
   xmlns="http://www.w3.org/2000/svg"
   xmlns:svg="http://www.w3.org/2000/svg">
  <defs
     id="defs1">
    <clipPath
       clipPathUnits="userSpaceOnUse"
       id="clipPath7">
      <path
         d="M 0,600 H 900 V 0 H 0 Z"
         transform="translate(-225.00001,-513.75001)"
         id="path7" />
    </clipPath>
    <clipPath
       clipPathUnits="userSpaceOnUse"
       id="clipPath9">
      <path
         d="M 0,600 H 900 V 0 H 0 Z"
         transform="translate(-225.00001,-506.25001)"
         id="path9" />
    </clipPath>
  </defs>
  <sodipodi:namedview
     id="namedview1"
     pagecolor="#ffffff"
     bordercolor="#000000"
     borderopacity="0.25"
     inkscape:showpageshadow="2"
     inkscape:pageopacity="0.0"
     inkscape:pagecheckerboard="0"
     inkscape:deskcolor="#d1d1d1">
    <inkscape:page
       x="0"
       y="0"
       inkscape:label="1"
       id="page1"
       width="1200"
       height="800"
       margin="0"
       bleed="0" />
  </sodipodi:namedview>
  <g
     id="layer-MC0"
     inkscape:groupmode="layer"
     inkscape:label="Layer 1">
    <path
       id="path1"
       d="M 0,0 H 900 V 600 H 0 Z"
       style="fill:#fe0000;fill-opacity:1;fill-rule:nonzero;stroke:none"
       transform="matrix(1.3333333,0,0,-1.3333333,0,800)" />
    <path
       id="path2"
       d="M 0,300 H 450 V 600.001 H 0 Z"
       style="fill:#000095;fill-opacity:1;fill-rule:nonzero;stroke:none"
       transform="matrix(1.3333333,0,0,-1.3333333,0,800)" />
    <path
       id="path3"
       d="M 0,0 112.5,30 0,60 -112.5,30 M 30,30 0,-82.5 -30,30 0,142.5"
       style="fill:#ffffff;fill-opacity:1;fill-rule:nonzero;stroke:none"
       transform="matrix(1.3333333,0,0,-1.3333333,300,240)" />
    <path
       id="path4"
       d="M 0,0 112.428,-30.269 30,51.962 -82.428,82.231 M 40.981,10.981 -41.25,-71.447 -10.981,40.981 71.25,123.409"
       style="fill:#ffffff;fill-opacity:1;fill-rule:nonzero;stroke:none"
       transform="matrix(1.3333333,0,0,-1.3333333,280,234.64133)" />
    <path
       id="path5"
       d="M 0,0 82.231,-82.428 51.962,30 -30.269,112.428 M 40.981,-10.981 -71.447,-41.25 10.981,40.981 123.409,71.25"
       style="fill:#ffffff;fill-opacity:1;fill-rule:nonzero;stroke:none"
       transform="matrix(1.3333333,0,0,-1.3333333,265.35867,220)" />
    <path
       id="path6"
       d="m 0,0 c 35.208,0 63.75,-28.542 63.75,-63.75 0,-35.208 -28.542,-63.75 -63.75,-63.75 -35.208,0 -63.75,28.542 -63.75,63.75 C -63.75,-28.542 -35.208,0 0,0"
       style="fill:#000095;fill-opacity:1;fill-rule:nonzero;stroke:none"
       transform="matrix(1.3333333,0,0,-1.3333333,300,115)"
       clip-path="url(#clipPath7)" />
    <path
       id="path8"
       d="m 0,0 c 31.066,0 56.25,-25.184 56.25,-56.25 0,-31.066 -25.184,-56.25 -56.25,-56.25 -31.066,0 -56.25,25.184 -56.25,56.25 C -56.25,-25.184 -31.066,0 0,0"
       style="fill:#ffffff;fill-opacity:1;fill-rule:nonzero;stroke:none"
       transform="matrix(1.3333333,0,0,-1.3333333,300,125)"
       clip-path="url(#clipPath9)" />
  </g>
</svg>
